public/avatar/emote/5.svg

<svg xmlns:xlink="http://www.w3.org/1999/xlink" height="100.8" width="132.65" xmlns="http://www.w3.org/2000/svg"><g transform="translate(77.75 73.55)"><use height="9.55" transform="translate(-12.25 -8.45)" width="24.45" xlink:href="#a"/><use height="35.95" transform="translate(-23.5 -22.35)" width="48.5" xlink:href="#b"/></g><defs><g id="a"><path d="m.95-1.6 5.4.6h.05L11.5.2l.7.7-3.15.2-1.7-.15L4.85.8.9.65l-6.3.1-2.5.2-.25.05-.6.05-3.45-.1-.05-.1q0-.6 2.35-1.35l3.2-.65h.05l5.4-.5 1.6.05h.6" fill-opacity=".153" fill-rule="evenodd" transform="translate(12.25 8.45)"/><path d="m6.4-1.8-.15-1.3-.45-1.85-.75-1.75-.9-1-1.05-.25-.7.85-.65 1.25-.35 1.2-.2 1.25v.45M-6.65-1.8l.05-.4q.15-2.05.75-3.6.75-2.2 1.9-2.15l.65.15q.75.45 1.3 2 .6 1.6.55 2.55" fill="none" stroke="#666" stroke-linecap="round" stroke-linejoin="round" transform="translate(12.25 8.45)"/></g><g id="b" transform="translate(23.45 29.5)"><use height="9.95" transform="matrix(.9409 0 0 1.309 -12.42 -6.57)" width="25.5" xlink:href="#c"/><use height="2.4" transform="translate(-22.35 -10.6)" width="2.4" xlink:href="#d"/><use height="2.4" transform="translate(-23.45 -17)" width="2.4" xlink:href="#d"/><use height="2.4" transform="translate(-13.55 -25.6)" width="2.4" xlink:href="#d"/><use height="2.4" transform="translate(1.45 -29.5)" width="2.4" xlink:href="#d"/><use height="2.4" transform="translate(4.45 -25.6)" width="2.4" xlink:href="#d"/><use height="2.4" transform="translate(15.05 -14.8)" width="2.4" xlink:href="#d"/><use height="2.4" transform="translate(22.65 -12.2)" width="2.4" xlink:href="#d"/><use height="2.4" transform="translate(20.45 -8.2)" width="2.4" xlink:href="#d"/></g><g id="e"><path d="M8.05.2q.25 1.25-.95 2.85h-1L5.7 3v-.45l-.05-.5-.2-.55q-.2-.35-.7-.35-.55-.05-.8.35-.25.35-.35.85l-.05.55-10.25.65q-.65-.7-.95-2.75L5.2-.05 8.05.2" fill="#fff" fill-rule="evenodd" transform="translate(13.2 .55)"/><path d="M-6.6 6.85q5.85-2.7 12.85-.2L.3 8.9l-6.9-2.05" fill="#c00" fill-rule="evenodd" transform="translate(13.2 .55)"/><path d="M-7.65.8q.3 2.05.95 2.75L3.55 2.9l.05-.55q.1-.5.35-.85.25-.4.8-.35.5 0 .7.35l.2.55.05.5V3l.4.05h1q1.2-1.6.95-2.85l2.3.25q4.25 2.1-4.1 6.2-7-2.5-12.85.2-4.55-1.75-5.75-3.1-1.2-1.4 2-2.5l2.7-.45" fill-rule="evenodd" transform="translate(13.2 .55)"/><path d="M8.05.2 5.2-.05-7.65.8l-2.7.45q-3.2 1.1-2 2.5 1.2 1.35 5.75 3.1L.3 8.9l5.95-2.25q8.35-4.1 4.1-6.2L8.05.2Z" fill="none" stroke="#333" stroke-linecap="round" stroke-linejoin="round" transform="translate(13.2 .55)"/></g><use height="9.95" width="25.5" xlink:href="#e" id="c"/><use height="2.4" width="2.4" xlink:href="#f" id="d"/><path d="M.85-.85q.35.35.35.85T.85.85Q.5 1.2 0 1.2T-.85.85Q-1.2.5-1.2 0t.35-.85Q-.5-1.2 0-1.2t.85.35" fill="#fff" fill-rule="evenodd" transform="translate(1.2 1.2)" id="f"/></defs></svg>

<?xml version="1.0" encoding="UTF-8" standalone="no"?>
<svg xmlns:xlink="http://www.w3.org/1999/xlink" height="100.8px" width="132.65px" xmlns="http://www.w3.org/2000/svg">
  <g transform="matrix(1.0, 0.0, 0.0, 1.0, 77.75, 73.55)">
    <use height="9.55" transform="matrix(1.0, 0.0, 0.0, 1.0, -12.25, -8.45)" width="24.45" xlink:href="#shape0"/>
    <use height="35.95" transform="matrix(1.0, 0.0, 0.0, 1.0, -23.5, -22.35)" width="48.5" xlink:href="#sprite0"/>
  </g>
  <defs>
    <g id="shape0" transform="matrix(1.0, 0.0, 0.0, 1.0, 12.25, 8.45)">
      <path d="M0.95 -1.6 L6.35 -1.0 6.4 -1.0 11.5 0.2 12.2 0.9 9.05 1.1 7.35 0.95 4.85 0.8 0.9 0.65 -5.4 0.75 -7.9 0.95 -8.15 1.0 -8.75 1.05 -12.2 0.95 -12.25 0.85 Q-12.25 0.25 -9.9 -0.5 L-6.7 -1.15 -6.65 -1.15 -1.25 -1.65 0.35 -1.6 0.95 -1.6" fill="#000000" fill-opacity="0.15294118" fill-rule="evenodd" stroke="none"/>
      <path d="M6.4 -1.8 L6.25 -3.1 5.8 -4.95 5.05 -6.7 4.15 -7.7 3.1 -7.95 2.4 -7.1 1.75 -5.85 1.4 -4.65 1.2 -3.4 1.2 -2.95 M-6.65 -1.8 L-6.6 -2.2 Q-6.45 -4.25 -5.85 -5.8 -5.1 -8.0 -3.95 -7.95 L-3.3 -7.8 Q-2.55 -7.35 -2.0 -5.8 -1.4 -4.2 -1.45 -3.25" fill="none" stroke="#666666" stroke-linecap="round" stroke-linejoin="round" stroke-width="1.0"/>
    </g>
    <g id="sprite0" transform="matrix(1.0, 0.0, 0.0, 1.0, 23.45, 29.5)">
      <use height="9.95" transform="matrix(0.9409, 0.0, 0.0, 1.309, -12.4205, -6.5699)" width="25.5" xlink:href="#sprite1"/>
      <use height="2.4" transform="matrix(1.0, 0.0, 0.0, 1.0, -22.35, -10.6)" width="2.4" xlink:href="#sprite2"/>
      <use height="2.4" transform="matrix(1.0, 0.0, 0.0, 1.0, -23.45, -17.0)" width="2.4" xlink:href="#sprite2"/>
      <use height="2.4" transform="matrix(1.0, 0.0, 0.0, 1.0, -13.55, -25.6)" width="2.4" xlink:href="#sprite2"/>
      <use height="2.4" transform="matrix(1.0, 0.0, 0.0, 1.0, 1.45, -29.5)" width="2.4" xlink:href="#sprite2"/>
      <use height="2.4" transform="matrix(1.0, 0.0, 0.0, 1.0, 4.45, -25.6)" width="2.4" xlink:href="#sprite2"/>
      <use height="2.4" transform="matrix(1.0, 0.0, 0.0, 1.0, 15.05, -14.8)" width="2.4" xlink:href="#sprite2"/>
      <use height="2.4" transform="matrix(1.0, 0.0, 0.0, 1.0, 22.65, -12.2)" width="2.4" xlink:href="#sprite2"/>
      <use height="2.4" transform="matrix(1.0, 0.0, 0.0, 1.0, 20.45, -8.2)" width="2.4" xlink:href="#sprite2"/>
    </g>
    <g id="sprite1" transform="matrix(1.0, 0.0, 0.0, 1.0, 13.2, 0.55)">
      <use height="9.95" transform="matrix(1.0, 0.0, 0.0, 1.0, -13.2, -0.55)" width="25.5" xlink:href="#shape1"/>
    </g>
    <g id="shape1" transform="matrix(1.0, 0.0, 0.0, 1.0, 13.2, 0.55)">
      <path d="M8.05 0.2 Q8.3 1.45 7.1 3.05 L6.1 3.05 5.7 3.0 5.7 2.85 5.7 2.55 5.65 2.05 5.45 1.5 Q5.25 1.15 4.75 1.15 4.2 1.1 3.95 1.5 3.7 1.85 3.6 2.35 L3.55 2.9 -6.7 3.55 Q-7.35 2.85 -7.65 0.8 L5.2 -0.05 8.05 0.2" fill="#ffffff" fill-rule="evenodd" stroke="none"/>
      <path d="M-6.6 6.85 Q-0.75 4.15 6.25 6.65 L0.3 8.9 -6.6 6.85" fill="#cc0000" fill-rule="evenodd" stroke="none"/>
      <path d="M-7.65 0.8 Q-7.35 2.85 -6.7 3.55 L3.55 2.9 3.6 2.35 Q3.7 1.85 3.95 1.5 4.2 1.1 4.75 1.15 5.25 1.15 5.45 1.5 L5.65 2.05 5.7 2.55 5.7 2.85 5.7 3.0 6.1 3.05 7.1 3.05 Q8.3 1.45 8.05 0.2 L10.35 0.45 Q14.6 2.55 6.25 6.65 -0.75 4.15 -6.6 6.85 -11.15 5.1 -12.35 3.75 -13.55 2.35 -10.35 1.25 L-7.65 0.8" fill="#000000" fill-rule="evenodd" stroke="none"/>
      <path d="M8.05 0.2 L5.2 -0.05 -7.65 0.8 -10.35 1.25 Q-13.55 2.35 -12.35 3.75 -11.15 5.1 -6.6 6.85 L0.3 8.9 6.25 6.65 Q14.6 2.55 10.35 0.45 L8.05 0.2 Z" fill="none" stroke="#333333" stroke-linecap="round" stroke-linejoin="round" stroke-width="1.0"/>
    </g>
    <g id="sprite2" transform="matrix(1.0, 0.0, 0.0, 1.0, 1.2, 1.2)">
      <use height="2.4" transform="matrix(1.0, 0.0, 0.0, 1.0, -1.2, -1.2)" width="2.4" xlink:href="#shape2"/>
    </g>
    <g id="shape2" transform="matrix(1.0, 0.0, 0.0, 1.0, 1.2, 1.2)">
      <path d="M0.85 -0.85 Q1.2 -0.5 1.2 0.0 1.2 0.5 0.85 0.85 0.5 1.2 0.0 1.2 -0.5 1.2 -0.85 0.85 -1.2 0.5 -1.2 0.0 -1.2 -0.5 -0.85 -0.85 -0.5 -1.2 0.0 -1.2 0.5 -1.2 0.85 -0.85" fill="#ffffff" fill-rule="evenodd" stroke="none"/>
    </g>
  </defs>
</svg>
